X: 120381
T: Lost Kerryman
M: 4/4
L: 1/8
R: hornpipe
S: trad. American arr. B.Black
K: D
A,B, | D2 DF EDB,C | DEDB, A,2 A,B, |\
D2 DE F2 A2 | B4 B3 c |
dBAd BAdB | AdBA F2 DE | FEDF EDB,C | D4 D2 :|
A2 | B3 c d3 B | A2 AB AF D2 | BABc d2 e2 |\
f3 g f4 |
B3 c d3 B | AFAB AFDE | FEDF EDB,C | D4 D2 :|
